!!!OTL: Katharine Jaffray
!!!ONM: 11.
**kern
*clefG2
*k[b-e-a-]
*E-:
*M4/4
*MM80
{(8e-
8f)
=1
4g
4g
4g
8e-
8g
=2
4b-
4b-
4cc}
{4B-
=3
4e-
4e-
4f
(8e-
8f)
=4
2.g}
{4b-
=5
4cc
4cc
4b-
(8cc
8dd)
=6
4ee-
8ff
8dd
(8ee-
8cc)}
{8b-
8a-
=7
4.g
8e-
4f
4f
=8
2.e-
=||
8e-
8f
=9
4g
4g
(8g
8f)
(8e-
8g)
=10
2.b-}
{4b-
=11
4cc
4cc
4b-
(8cc
8dd)
=12
4ee-
8ff
8dd
(8ee-
8cc)
8b-
8a-
=13
4.g
8e-
4f
4f
=14
2.e-}
==
*-
!!!CNT: Folksongs of Maritime Canada
!!!MRD: 1928///-1932///
!!!OCL: Helen Creighton
!!!YOR: Songs and Ballads from Nova Scotia
!!!PPR: J.M. Dent & Sons, Limited
!!!PPP: Toronto, Canada
!!!PDT: 1932///
!!!reprint: Dover Publications, 1992: ISBN 0-486-21703-5
!!!ENC1: Craig Stuart Sapp (music and bibliographic data)                       
!!!ENC2: Marcus Pearce (phrase markings and key designations)                   
!!!ENC3: Darrell Conklin (phrase markings and key designations)   
!!!END: 2002/04/10/
!!!EEV: 2004/06/05
!!!MPN: Mr. Ben Henneberry
!!!PPG: 22
!!!EFL: 11/152
!!!ARE: Canada; Nova Scotia
!!!verses: 16
!!!VTS: 818184308
